src/static/img/catalogue-bg-02.svg

<svg width="288" height="160" viewBox="0 0 288 160" fill="none" xmlns="http://www.w3.org/2000/svg">
<g clip-path="url(#clip0_654_4814)">
<path d="M0 16C0 7.16345 7.16344 0 16 0H400C408.837 0 416 7.16344 416 16V206H0V16Z" fill="#F2E7AA"/>
<path opacity="0.7" d="M0 80C-1.77064e-06 59.7463 13.7965 37.6888 32.1372 23.3673C50.478 9.04576 75.3533 0.999996 101.291 0.999994C127.229 0.999991 152.104 9.04574 170.445 23.3673C188.786 37.6888 202 59.7463 202 80L101.291 80L0 80Z" fill="#3E81C5"/>
<path opacity="0.7" d="M127 200C127 180.003 138.201 158.224 153.092 144.084C167.982 129.944 188.178 122 209.236 122C230.295 122 250.49 129.944 265.381 144.084C280.271 158.224 291 180.003 291 200L209.236 200L127 200Z" fill="#A5A14C"/>
<path opacity="0.7" d="M202 -5C213.294 -5 224.477 -2.77555 234.911 1.54635C245.345 5.86827 254.825 12.203 262.811 20.1888C270.797 28.1746 277.132 37.6552 281.454 48.0892C285.776 58.5232 288 69.7063 288 81C288 92.2937 285.776 103.477 281.454 113.911C277.132 124.345 270.797 133.825 262.811 141.811C254.825 149.797 245.345 156.132 234.911 160.454C224.477 164.776 213.294 167 202 167L202 81L202 -5Z" fill="#9E4F39"/>
<circle opacity="0.7" cx="60.5" cy="127.5" r="24.5" fill="#FAF8ED"/>
<circle opacity="0.7" cx="32.5" cy="127.5" r="24.5" fill="#EECFD9"/>
</g>
<defs>
<clipPath id="clip0_654_4814">
<path d="M0 16C0 7.16345 7.16344 0 16 0H272C280.837 0 288 7.16344 288 16V160H0V16Z" fill="white"/>
</clipPath>
</defs>
</svg>

<svg fill="none" xmlns="http://www.w3.org/2000/svg" viewBox="0 0 288 160">
    <g clip-path="url(#a)">
        <path d="M0 16C0 7.163 7.163 0 16 0h384c8.837 0 16 7.163 16 16v190H0V16Z" fill="#F2E7AA" />
        <path opacity=".7" d="M0 80c0-20.254 13.796-42.311 32.137-56.633C50.478 9.046 75.353 1 101.291 1c25.938 0 50.813 8.046 69.154 22.367C188.786 37.69 202 59.747 202 80H0Z" fill="#3E81C5" />
        <path opacity=".7" d="M127 200c0-19.997 11.201-41.776 26.092-55.916 14.89-14.14 35.086-22.084 56.144-22.084 21.059 0 41.254 7.944 56.145 22.084C280.271 158.224 291 180.003 291 200H127Z" fill="#A5A14C" />
        <path opacity=".7" d="M202-5a86 86 0 1 1 0 172V-5Z" fill="#9E4F39" />
        <circle opacity=".7" cx="60.5" cy="127.5" r="24.5" fill="#FAF8ED" />
        <circle opacity=".7" cx="32.5" cy="127.5" r="24.5" fill="#EECFD9" />
    </g>
    <defs>
        <clipPath id="a">
            <path d="M0 16C0 7.163 7.163 0 16 0h256c8.837 0 16 7.163 16 16v144H0V16Z" fill="#fff" />
        </clipPath>
    </defs>
</svg>
